d1 $ s "hh*16" # amp sine # speed (sine + 0.5)

d1 $ every 5 (fast 2) $ s "[~ lt]*4" # pan cosine 

d2 $ s "808bd sn:3 808bd sn:5"

d3 $ slow 2 $ n "{c5'maj/4 e4'min/4 d5'min/4 ~ ~ f4'maj/4 ~, ~ <c4'maj/2 d4'min/2> ~ <e5'min/2 e4'min/2 f5'maj/2>}" # s "superpiano" # decay 0.8 # velocity 0.25

d4 $ s "moog(0,1,3,8,4)/2" # up "[0 2 0 4]/8" # lpf 400
